X: 4
T: Billy Bones
P: piffero primo a0783
O: Roy Watrous
%R: reel
S: http://ancients.sudburymuster.org/mus/med/pdf/billybudbonC0.pdf
Z: 2020 John Chambers <jc:trillian.mit.edu>
M: 2/4
L: 1/16
K: D
A2 |\
d2dc defd | efec A2A2 | B2ba gfed | cdef egfe |\
d2dc defd |
efec A2A2 | B2ba gfed | cABc d2 :|\
|: fg |\
afdf afba | gece geag |
fdAd fdgf | ecAc egfe |\
d2dc defd | efec A2A2 | B2ba gfed | cABc d2 :|


